src/main/resources/icons/RustIcons/abstractConstant.svg

<svg width="16" height="16" viewBox="0 0 16 16" fill="none" xmlns="http://www.w3.org/2000/svg">
<rect x="4" y="1" width="8" height="14" fill="#F4AF3D" fill-opacity="0.6"/>
<path fill-rule="evenodd" clip-rule="evenodd" d="M7.56391 12C6.81926 12 6.12597 11.8117 5.54394 11.4608L5.92911 10.5819C6.41698 10.8815 6.92197 11.0526 7.53824 11.0526C8.46263 11.0526 9 10.6819 9 9.77461V9.43224C8.6234 9.91156 8.12026 10.2539 7.37561 10.2539C6.30571 10.2539 5.4214 9.46648 5.4214 8.1398V8.12268C5.4214 6.78745 6.32283 6 7.37561 6C8.13738 6 8.64907 6.35093 9 6.77033V6H10V9.68902C10 10.4508 9.79786 11.0157 9.42126 11.3923C9.01042 11.8031 8.37704 12 7.56391 12ZM7.6495 9.37233C8.36848 9.37233 9 8.86733 9 8.13124V8.11412C9 7.37803 8.36848 6.8816 7.6495 6.8816C6.93053 6.8816 6.46562 7.36947 6.46562 8.11412V8.13124C6.46562 8.86733 6.93909 9.37233 7.6495 9.37233Z" fill="#231F20" fill-opacity="0.7"/>
<path fill-rule="evenodd" clip-rule="evenodd" d="M3 1.17072C1.83481 1.58255 1 2.69379 1 4.00001V12C1 13.3062 1.83481 14.4175 3 14.8293V1.17072ZM13 1.17072V14.8293C14.1652 14.4175 15 13.3062 15 12V4.00001C15 2.69379 14.1652 1.58255 13 1.17072Z" fill="#9AA7B0" fill-opacity="0.6"/>
</svg>

<svg width="16" height="16" viewBox="0 0 16 16" fill="none" xmlns="http://www.w3.org/2000/svg"><rect id="frame" width="16" height="16" fill="none"/><path fill="#F4AF3D" fill-opacity=".6" d="M4 1h8v14H4z"/><path fill-rule="evenodd" clip-rule="evenodd" d="M7.564 12a3.894 3.894 0 0 1-2.02-.54l.385-.878c.488.3.993.47 1.61.47.924 0 1.461-.37 1.461-1.277v-.343c-.377.48-.88.822-1.624.822-1.07 0-1.955-.788-1.955-2.114v-.017C5.421 6.787 6.323 6 7.376 6c.761 0 1.273.35 1.624.77V6h1v3.689c0 .762-.202 1.327-.579 1.703-.41.411-1.044.608-1.857.608zm.085-2.628C8.37 9.372 9 8.867 9 8.132v-.018c0-.736-.632-1.232-1.35-1.232-.72 0-1.184.487-1.184 1.232v.017c0 .736.473 1.241 1.183 1.241z" fill="#231F20" fill-opacity=".7"/><path fill-rule="evenodd" clip-rule="evenodd" d="M3 1.17A3.001 3.001 0 0 0 1 4v8c0 1.306.835 2.418 2 2.83V1.17zm10 0v13.66A3.001 3.001 0 0 0 15 12V4a3.001 3.001 0 0 0-2-2.83z" fill="#9AA7B0" fill-opacity=".6"/></svg>
